src/assets/duotone/PasswordCheck.svg

<svg width="24" height="24" viewBox="0 0 24 24"  xmlns="http://www.w3.org/2000/svg">
<path d="M15 22C14.59 22 14.25 21.66 14.25 21.25V2.75C14.25 2.34 14.59 2 15 2C15.41 2 15.75 2.34 15.75 2.75V21.25C15.75 21.66 15.41 22 15 22Z" />
<path opacity="0.4" d="M6.5 20H12.5V4H6.5C4.29 4 2.5 5.79 2.5 8V16C2.5 18.21 4.29 20 6.5 20Z" />
<path opacity="0.4" d="M18 20H15V4H18C20.21 4 22 5.79 22 8V16C22 18.21 20.21 20 18 20Z" />
<path d="M5.75 12.9999C5.62 12.9999 5.49 12.9699 5.37 12.9199C5.25 12.8699 5.14 12.7999 5.04 12.7099C4.95 12.6099 4.88 12.4999 4.82 12.3799C4.77 12.2599 4.75 12.1299 4.75 11.9999C4.75 11.7399 4.86 11.4799 5.04 11.2899C5.09 11.2499 5.14 11.2099 5.19 11.1699C5.25 11.1299 5.31 11.0999 5.37 11.0799C5.43 11.0499 5.49 11.0299 5.55 11.0199C5.89 10.9499 6.23 11.0599 6.46 11.2899C6.64 11.4799 6.75 11.7399 6.75 11.9999C6.75 12.1299 6.72 12.2599 6.67 12.3799C6.62 12.4999 6.55 12.6099 6.46 12.7099C6.36 12.7999 6.25 12.8699 6.13 12.9199C6.01 12.9699 5.88 12.9999 5.75 12.9999Z" />
<path d="M9.25 13.0002C9.12 13.0002 8.99 12.9702 8.87 12.9202C8.75 12.8702 8.64 12.8002 8.54 12.7102C8.35 12.5202 8.25 12.2702 8.25 12.0002C8.25 11.8702 8.28 11.7402 8.33 11.6202C8.38 11.4902 8.45 11.3902 8.54 11.2902C8.91 10.9202 9.58 10.9202 9.96 11.2902C10.14 11.4802 10.25 11.7402 10.25 12.0002C10.25 12.1302 10.22 12.2602 10.17 12.3802C10.12 12.5002 10.05 12.6102 9.96 12.7102C9.86 12.8002 9.75 12.8702 9.63 12.9202C9.51 12.9702 9.38 13.0002 9.25 13.0002Z" />
</svg>

<?xml version="1.0" encoding="UTF-8"?>
<svg width="24" height="24" viewBox="0 0 24 24" xmlns="http://www.w3.org/2000/svg">
 <path d="m15 22c-0.41 0-0.75-0.34-0.75-0.75v-18.5c0-0.41 0.34-0.75 0.75-0.75s0.75 0.34 0.75 0.75v18.5c0 0.41-0.34 0.75-0.75 0.75z"/>
 <path d="m6.5 20h6v-16h-6c-2.21 0-4 1.79-4 4v8c0 2.21 1.79 4 4 4z" opacity=".4"/>
 <path d="m18 20h-3v-16h3c2.21 0 4 1.79 4 4v8c0 2.21-1.79 4-4 4z" opacity=".4"/>
 <path d="m5.75 13c-0.13 0-0.26-0.03-0.38-0.08s-0.23-0.12-0.33-0.21c-0.09-0.1-0.16-0.21-0.22-0.33-0.05-0.12-0.07-0.25-0.07-0.38 0-0.26 0.11-0.52 0.29-0.71l0.15-0.12c0.06-0.04 0.12-0.07 0.18-0.09 0.06-0.03 0.12-0.05 0.18-0.06 0.34-0.07 0.68 0.04 0.91 0.27 0.18 0.19 0.29 0.45 0.29 0.71 0 0.13-0.03 0.26-0.08 0.38s-0.12 0.23-0.21 0.33c-0.1 0.09-0.21 0.16-0.33 0.21s-0.25 0.08-0.38 0.08z"/>
 <path d="m9.25 13c-0.13 0-0.26-0.03-0.38-0.08s-0.23-0.12-0.33-0.21c-0.19-0.19-0.29-0.44-0.29-0.71 0-0.13 0.03-0.26 0.08-0.38 0.05-0.13 0.12-0.23 0.21-0.33 0.37-0.37 1.04-0.37 1.42 0 0.18 0.19 0.29 0.45 0.29 0.71 0 0.13-0.03 0.26-0.08 0.38s-0.12 0.23-0.21 0.33c-0.1 0.09-0.21 0.16-0.33 0.21s-0.25 0.08-0.38 0.08z"/>
</svg>
